X:143
T: ICH KUMM ZUM SUMMER
N: E1225A
O: Europa, Mitteleuropa, Deutschland, Schlesien, Glogau
R: Ansinge -, Brauchtums - Lied, Kirchen - Fest, Sommer - Tags - Lied
M: 3/4
L: 1/8
K: F
 | c2c2c2 | d2c2z2 |
BAG2G2 | A2F2z2 |
ccc2B2 | d2d2z2 |
BAG2G2 | A2F2z2

@@@ Tune index: 4827
